flaticon/symbols/strength.svg

<svg xmlns="http://www.w3.org/2000/svg" width="32" height="32" viewBox="0 0 24 24">
    <path d="M 19.464844 4.066406 L 14.785156 4.066406 L 14.78125 2.78125 C 14.78125 1.273438 13.558594 0 12.113281 0 C 10.648438 0 9.5 1.171875 9.5 2.664062 L 9.5 4.066406 L 4.535156 4.066406 C 3.75 4.066406 3.109375 4.707031 3.109375 5.492188 L 3.109375 5.898438 C 3.109375 6.683594 3.75 7.320312 4.535156 7.320312 L 6.613281 7.320312 C 6.542969 7.488281 6.503906 7.671875 6.503906 7.871094 L 6.503906 8.097656 C 6.503906 8.679688 6.890625 9.058594 7.382812 9.238281 C 7.402344 9.246094 7.421875 9.253906 7.441406 9.261719 C 7.5 9.277344 7.558594 9.292969 7.621094 9.304688 C 7.660156 9.316406 7.699219 9.324219 7.742188 9.332031 C 7.835938 9.347656 7.933594 9.355469 8.027344 9.355469 C 8.035156 9.355469 8.039062 9.355469 8.042969 9.355469 L 9.5 9.355469 L 9.5 10.578125 C 9.042969 10.585938 8.566406 10.609375 8.152344 10.722656 C 7.203125 10.980469 6.863281 11.753906 6.953125 12.40625 C 6.964844 12.5 6.988281 12.597656 7.019531 12.691406 C 7.03125 12.734375 7.054688 12.773438 7.070312 12.8125 C 7.085938 12.851562 7.097656 12.886719 7.113281 12.921875 C 7.359375 13.414062 7.882812 13.832031 8.6875 13.832031 L 9.5 13.832031 L 9.5 15.042969 L 8.496094 15.042969 C 7.863281 15.042969 7.292969 15.113281 6.792969 15.246094 C 6.683594 15.277344 6.578125 15.316406 6.476562 15.367188 C 6.390625 15.410156 6.3125 15.457031 6.238281 15.511719 C 6.230469 15.515625 6.226562 15.515625 6.222656 15.519531 C 5.636719 15.9375 5.394531 16.660156 5.480469 17.292969 C 5.59375 18.140625 6.226562 18.710938 7.058594 18.710938 L 9.613281 18.710938 L 10.132812 19.648438 C 9.730469 20.121094 9.5 20.730469 9.5 21.355469 C 9.5 22.8125 10.6875 24 12.144531 24 C 13.601562 24 14.789062 22.8125 14.789062 21.355469 C 14.789062 20.707031 14.546875 20.085938 14.117188 19.605469 L 14.613281 18.710938 L 16.996094 18.710938 C 17.863281 18.710938 18.550781 18.085938 18.667969 17.1875 C 18.777344 16.386719 18.398438 15.671875 17.726562 15.355469 C 17.636719 15.3125 17.535156 15.273438 17.433594 15.246094 C 16.933594 15.109375 16.363281 15.042969 15.730469 15.042969 L 14.789062 15.042969 L 14.789062 13.832031 L 15.738281 13.832031 C 16.746094 13.832031 17.285156 13.171875 17.371094 12.523438 C 17.417969 12.175781 17.332031 11.785156 17.097656 11.453125 C 16.898438 11.128906 16.566406 10.855469 16.078125 10.722656 C 15.664062 10.609375 15.226562 10.585938 14.785156 10.578125 L 14.78125 9.355469 L 16.414062 9.355469 C 17.207031 9.355469 17.722656 8.863281 17.722656 8.097656 L 17.722656 7.871094 C 17.722656 7.675781 17.675781 7.492188 17.59375 7.320312 L 19.464844 7.320312 C 20.25 7.320312 20.890625 6.683594 20.890625 5.898438 L 20.890625 5.492188 C 20.890625 4.707031 20.25 4.066406 19.464844 4.066406 Z M 10.3125 2.664062 C 10.3125 1.625 11.105469 0.8125 12.113281 0.8125 C 13.101562 0.8125 13.96875 1.734375 13.96875 2.78125 L 13.972656 4.066406 L 10.3125 4.066406 C 10.3125 4.066406 10.3125 2.664062 10.3125 2.664062 Z M 12.144531 23.1875 C 11.136719 23.1875 10.3125 22.363281 10.3125 21.355469 C 10.3125 20.988281 10.421875 20.636719 10.625 20.339844 L 13.664062 20.339844 C 13.863281 20.636719 13.976562 20.992188 13.976562 21.355469 C 13.972656 22.363281 13.152344 23.1875 12.144531 23.1875 Z M 13.503906 19.035156 L 13.230469 19.527344 L 10.996094 19.527344 L 10.542969 18.710938 L 13.683594 18.710938 Z M 14.136719 17.898438 L 7.230469 17.898438 C 6.671875 17.898438 6.414062 17.457031 6.363281 17.082031 C 6.316406 16.742188 6.417969 16.308594 6.816406 16.105469 C 6.875 16.074219 6.9375 16.050781 7.007812 16.03125 C 7.421875 15.917969 7.910156 15.863281 8.496094 15.863281 L 10.3125 15.863281 L 10.3125 15.855469 L 13.972656 15.855469 L 13.972656 15.863281 L 15.734375 15.863281 C 16.320312 15.863281 16.804688 15.917969 17.21875 16.03125 C 17.285156 16.046875 17.339844 16.070312 17.390625 16.097656 C 17.746094 16.277344 17.835938 16.652344 17.792969 16.976562 C 17.734375 17.417969 17.40625 17.898438 16.824219 17.898438 Z M 13.972656 15.042969 L 10.3125 15.042969 L 10.3125 13.832031 L 13.972656 13.832031 Z M 13.972656 13.015625 L 8.6875 13.015625 C 8.253906 13.015625 7.976562 12.816406 7.84375 12.5625 C 7.839844 12.558594 7.835938 12.550781 7.835938 12.542969 C 7.820312 12.515625 7.808594 12.488281 7.796875 12.457031 C 7.785156 12.417969 7.777344 12.378906 7.769531 12.335938 C 7.734375 12.054688 7.875 11.703125 8.386719 11.566406 C 8.8125 11.449219 9.3125 11.390625 9.867188 11.390625 C 9.882812 11.390625 9.894531 11.390625 9.90625 11.390625 L 14.382812 11.390625 C 14.390625 11.390625 14.394531 11.390625 14.402344 11.390625 C 14.960938 11.390625 15.460938 11.449219 15.886719 11.566406 C 16.136719 11.632812 16.304688 11.75 16.410156 11.886719 C 16.503906 12.035156 16.53125 12.207031 16.511719 12.351562 C 16.46875 12.65625 16.214844 13.015625 15.636719 13.015625 Z M 13.972656 10.578125 L 10.3125 10.578125 L 10.3125 9.355469 L 13.96875 9.355469 Z M 13.96875 8.542969 L 8.042969 8.542969 C 8.015625 8.542969 7.984375 8.539062 7.953125 8.539062 C 7.9375 8.535156 7.921875 8.535156 7.910156 8.53125 C 7.890625 8.53125 7.871094 8.527344 7.851562 8.523438 C 7.824219 8.519531 7.800781 8.515625 7.773438 8.507812 C 7.765625 8.507812 7.757812 8.503906 7.75 8.503906 C 7.546875 8.445312 7.316406 8.3125 7.316406 7.984375 C 7.316406 7.605469 7.628906 7.324219 8.042969 7.324219 L 16.183594 7.324219 C 16.597656 7.324219 16.910156 7.609375 16.910156 7.984375 C 16.910156 8.515625 16.304688 8.542969 16.183594 8.542969 Z M 20.078125 5.898438 C 20.078125 6.234375 19.800781 6.507812 19.464844 6.507812 L 4.535156 6.507812 C 4.199219 6.507812 3.925781 6.234375 3.925781 5.898438 L 3.925781 5.492188 C 3.925781 5.15625 4.199219 4.882812 4.535156 4.882812 L 19.464844 4.882812 C 19.800781 4.882812 20.078125 5.15625 20.078125 5.492188 C 20.074219 5.492188 20.074219 5.898438 20.078125 5.898438 Z M 20.078125 5.898438"/>
</svg>

<svg xmlns="http://www.w3.org/2000/svg" width="32" height="32" viewBox="0 0 24 24">
    <path d="M19.465 4.066h-4.68l-.004-1.285C14.781 1.273 13.56 0 12.113 0 10.648 0 9.5 1.172 9.5 2.664v1.402H4.535c-.785 0-1.426.641-1.426 1.426v.406c0 .786.641 1.422 1.426 1.422h2.078c-.07.168-.11.352-.11.551v.227c0 .582.388.96.88 1.14l.058.024c.059.015.118.031.18.043.04.011.078.02.121.027.094.016.192.023.285.023H9.5v1.223c-.457.008-.934.031-1.348.145-.949.257-1.289 1.03-1.199 1.683.012.094.035.192.067.285.011.043.035.082.05.121.016.04.028.075.043.11.246.492.77.91 1.574.91H9.5v1.211H8.496c-.633 0-1.203.07-1.703.203-.11.031-.215.07-.316.121-.086.043-.165.09-.239.145-.008.004-.011.004-.015.008-.586.418-.828 1.14-.743 1.773.114.848.747 1.418 1.579 1.418h2.554l.52.937a2.649 2.649 0 0 0-.633 1.707A2.649 2.649 0 0 0 12.145 24a2.649 2.649 0 0 0 2.644-2.645c0-.648-.242-1.27-.672-1.75l.496-.894h2.383c.867 0 1.555-.625 1.672-1.523.11-.801-.27-1.516-.941-1.833a1.743 1.743 0 0 0-.293-.109 6.485 6.485 0 0 0-1.704-.203h-.94v-1.211h.948c1.008 0 1.547-.66 1.633-1.309a1.522 1.522 0 0 0-.273-1.07c-.2-.324-.532-.598-1.02-.73-.414-.114-.851-.137-1.293-.145l-.004-1.223h1.633c.793 0 1.309-.492 1.309-1.257V7.87c0-.195-.047-.379-.13-.55h1.872c.785 0 1.426-.637 1.426-1.423v-.406c0-.785-.641-1.426-1.426-1.426zm-9.152-1.402c0-1.039.792-1.852 1.8-1.852.989 0 1.856.922 1.856 1.97l.004 1.284h-3.66V2.664zm1.832 20.523a1.837 1.837 0 0 1-1.832-1.832c0-.367.109-.718.312-1.015h3.04c.198.297.312.652.312 1.015a1.84 1.84 0 0 1-1.832 1.832zm1.359-4.152l-.274.492h-2.234l-.453-.816h3.14zm.633-1.137H7.23c-.558 0-.816-.441-.867-.816-.047-.34.055-.773.453-.977a.929.929 0 0 1 .192-.074c.414-.113.902-.168 1.488-.168h1.816v-.008h3.66v.008h1.762c.586 0 1.07.055 1.485.168.066.016.12.04.172.067.355.18.445.554.402.879-.059.441-.387.921-.969.921zm-.164-2.855h-3.66v-1.211h3.66zm0-2.027H8.687c-.433 0-.71-.2-.843-.454a.03.03 0 0 1-.008-.019.575.575 0 0 1-.04-.086 1.1 1.1 0 0 1-.026-.121c-.036-.281.105-.633.617-.77a5.638 5.638 0 0 1 1.48-.175h4.536c.558 0 1.058.058 1.484.175.25.067.418.184.523.32.094.15.121.321.102.466-.043.304-.297.664-.875.664zm0-2.438h-3.66V9.355h3.656zm-.004-2.035H8.043c-.027 0-.059-.004-.09-.004-.016-.004-.031-.004-.043-.008-.02 0-.039-.004-.058-.008a.553.553 0 0 1-.079-.015c-.007 0-.015-.004-.023-.004-.203-.059-.434-.191-.434-.52 0-.379.313-.66.727-.66h8.14c.415 0 .727.285.727.66 0 .532-.605.559-.726.559zm6.11-2.645c0 .336-.278.61-.614.61H4.535a.61.61 0 0 1-.61-.61v-.406a.61.61 0 0 1 .61-.61h14.93c.336 0 .613.274.613.61-.004 0-.004.406 0 .406zm0 0"/>
</svg>
